svg/ticket_confirmation.svg

<?xml version="1.0" encoding="UTF-8"?><!DOCTYPE svg PUBLIC "-//W3C//DTD SVG 1.1//EN" "http://www.w3.org/Graphics/SVG/1.1/DTD/svg11.dtd"><svg xmlns="http://www.w3.org/2000/svg" xmlns:xlink="http://www.w3.org/1999/xlink" version="1.1" id="mdi-ticket-confirmation" width="24" height="24" viewBox="0 0 24 24"><path d="M13,8.5H11V6.5H13V8.5M13,13H11V11H13V13M13,17.5H11V15.5H13V17.5M22,10V6C22,4.89 21.1,4 20,4H4A2,2 0 0,0 2,6V10C3.11,10 4,10.9 4,12A2,2 0 0,1 2,14V18A2,2 0 0,0 4,20H20A2,2 0 0,0 22,18V14A2,2 0 0,1 20,12A2,2 0 0,1 22,10Z" /></svg>

<svg xmlns="http://www.w3.org/2000/svg" viewBox="0 0 24 24"><path d="M13 8.5h-2v-2h2zm0 4.5h-2v-2h2zm0 4.5h-2v-2h2zm9-7.5V6a2 2 0 0 0-2-2H4a2 2 0 0 0-2 2v4a2 2 0 0 1 2 2 2 2 0 0 1-2 2v4a2 2 0 0 0 2 2h16a2 2 0 0 0 2-2v-4a2 2 0 0 1-2-2 2 2 0 0 1 2-2"/></svg>
